src/img/logo/icon-badge-2.svg

<svg xmlns="http://www.w3.org/2000/svg" viewBox="0 0 32 32"><defs><style>.cls-1{fill:#e10600;}.cls-2{fill:#fff;}.cls-3{fill:none;}</style></defs><g id="Layer_2" data-name="Layer 2"><g id="Layer_1-2" data-name="Layer 1"><g id="Logo-badge-_2" data-name="Logo-badge-#2"><path class="cls-1" d="M31,13.85,18,1.73a3,3,0,0,0-4.05,0L5.84,9.36a7.2,7.2,0,0,1,4.42,4.78h11a1,1,0,0,1,1,1v1.66a1,1,0,0,1-1,1H20v2.35a1,1,0,0,1-1,1H16.19a1,1,0,0,1-1-1V17.83H10.29a7.06,7.06,0,0,1-4.45,4.81L14,30.27a3,3,0,0,0,4.05,0L31,18.15A3,3,0,0,0,31,13.85Z"/><circle cx="23.36" cy="9.49" r="8.55"/><path class="cls-2" d="M26.4,13.45H20.22V11.93l2.08-2.1c.59-.62,1-1,1.16-1.27A2.38,2.38,0,0,0,23.84,8,1.12,1.12,0,0,0,24,7.46a.66.66,0,0,0-.21-.52.9.9,0,0,0-.61-.2,1.58,1.58,0,0,0-.81.24,5,5,0,0,0-.93.67L20.12,6.17a7,7,0,0,1,1.11-.84,3.94,3.94,0,0,1,1-.39,4.88,4.88,0,0,1,1.19-.13,3.65,3.65,0,0,1,1.48.29,2.22,2.22,0,0,1,1,.83,2.06,2.06,0,0,1,.37,1.21,3.48,3.48,0,0,1-.13.93,3,3,0,0,1-.39.83,5,5,0,0,1-.7.87c-.28.3-.9.88-1.84,1.72v.06H26.4Z"/><path class="cls-1" d="M3.45,12.65A3.62,3.62,0,0,0,1.93,13a3.32,3.32,0,0,0-.1,5.89,3.26,3.26,0,0,0,1.59.4A3.32,3.32,0,0,0,6.75,16,3.27,3.27,0,0,0,3.45,12.65Z"/><rect class="cls-3" width="32" height="32"/></g></g></g></svg>

<?xml version="1.0" encoding="UTF-8" standalone="no"?>
<svg
   viewBox="0 0 32 32"
   version="1.1"
   id="svg19"
   sodipodi:docname="icon-badge-2.svg"
   inkscape:version="1.2.2 (732a01da63, 2022-12-09)"
   inkscape:export-filename="..\icons\icon-32-badge-2.png"
   inkscape:export-xdpi="96"
   inkscape:export-ydpi="96"
   xmlns:inkscape="http://www.inkscape.org/namespaces/inkscape"
   xmlns:sodipodi="http://sodipodi.sourceforge.net/DTD/sodipodi-0.dtd"
   xmlns="http://www.w3.org/2000/svg"
   xmlns:svg="http://www.w3.org/2000/svg">
  <sodipodi:namedview
     id="namedview21"
     pagecolor="#ffffff"
     bordercolor="#000000"
     borderopacity="0.25"
     inkscape:showpageshadow="2"
     inkscape:pageopacity="0.0"
     inkscape:pagecheckerboard="0"
     inkscape:deskcolor="#d1d1d1"
     showgrid="false"
     inkscape:zoom="25.90625"
     inkscape:cx="12.178528"
     inkscape:cy="16.0193"
     inkscape:window-width="1920"
     inkscape:window-height="1009"
     inkscape:window-x="-8"
     inkscape:window-y="-2"
     inkscape:window-maximized="1"
     inkscape:current-layer="svg19" />
  <defs
     id="defs4">
    <style
       id="style2">.cls-1{fill:#e10600;}.cls-2{fill:#fff;}.cls-3{fill:none;}</style>
  </defs>
  <path
     class="cls-1"
     d="M 31,13.85 18,1.73 a 3,3 0 0 0 -4.05,0 L 5.84,9.36 a 7.2,7.2 0 0 1 4.42,4.78 h 11 a 1,1 0 0 1 1,1 v 1.66 a 1,1 0 0 1 -1,1 H 20 v 2.35 a 1,1 0 0 1 -1,1 h -2.81 a 1,1 0 0 1 -1,-1 v -2.32 h -4.9 A 7.06,7.06 0 0 1 5.84,22.64 L 14,30.27 a 3,3 0 0 0 4.05,0 L 31,18.15 a 3,3 0 0 0 0,-4.3 z"
     id="path6"
     style="fill:#ef8600;fill-opacity:1" />
  <circle
     cx="23.360001"
     cy="9.4899998"
     r="8.5500002"
     id="circle8" />
  <path
     class="cls-2"
     d="m 26.4,13.45 h -6.18 v -1.52 l 2.08,-2.1 c 0.59,-0.62 1,-1 1.16,-1.27 A 2.38,2.38 0 0 0 23.84,8 1.12,1.12 0 0 0 24,7.46 0.66,0.66 0 0 0 23.79,6.94 0.9,0.9 0 0 0 23.18,6.74 1.58,1.58 0 0 0 22.37,6.98 5,5 0 0 0 21.44,7.65 L 20.12,6.17 a 7,7 0 0 1 1.11,-0.84 3.94,3.94 0 0 1 1,-0.39 4.88,4.88 0 0 1 1.19,-0.13 3.65,3.65 0 0 1 1.48,0.29 2.22,2.22 0 0 1 1,0.83 2.06,2.06 0 0 1 0.37,1.21 3.48,3.48 0 0 1 -0.13,0.93 3,3 0 0 1 -0.39,0.83 5,5 0 0 1 -0.7,0.87 c -0.28,0.3 -0.9,0.88 -1.84,1.72 v 0.06 h 3.19 z"
     id="path10" />
  <path
     class="cls-1"
     d="M 3.45,12.65 A 3.62,3.62 0 0 0 1.93,13 3.32,3.32 0 0 0 1.83,18.89 3.26,3.26 0 0 0 3.42,19.29 3.32,3.32 0 0 0 6.75,16 3.27,3.27 0 0 0 3.45,12.65 Z"
     id="path12"
     style="fill:#ef8600;fill-opacity:1" />
  <rect
     class="cls-3"
     width="32"
     height="32"
     id="rect14"
     x="0"
     y="0" />
</svg>
